X: 1351
T: Mehtapta Güzel Olur Boğaziçi...
C: Muallim İsmail Hakkı Bey
O: Turkey
F: http://compmusic.upf.edu/node/140
N: ferahfeza--sarki--aydin--mehtapta_guzel--muallim_ismail_hakki_bey
N: makam= ferahfeza
N: form= sarki
N: usul= aydin = 9/8
M: 9/8
L: 1/16
K: C _B   
Q: 1/4=144
%%MIDI tuningsystem comma53
d2e2 f2g2 a4 f4 e2 | e3dd3cc3BA4z2  | \
w:  ARANAĞME  |   | 
c4 c2d2 c2B2 A2G2 F2 | 
w:   | 
c3=Bc2 d2c3Bc4A2  | A3c B2A2 G2^F2 G4 z2 | \
w:   |   | 
F2 A2G2 A2F3ED4z2  | 
w:   | 
F2A2 G2B2 A2G2 F3E D2 | E2 FGF2 E2D2 ^C2D4z2  | \
w:   |   | 
d2e2 f2g2 a4 f4 e2 | 
w:  ARANAĞME  | 
e3dd3cc3BA4z2  | c4 c2d2 c2B2 A2G2 F2 | \
w:   |   | 
c3=Bc2 d2c3Bc4A2  | 
w:   | 
A3c B2A2 G2^F2 G4 z2 | F2 A2G2 A2F3ED4z2  | \
w:   |   | 
F2A2 G2B2 A2G2 F3E D2 | 
w:   | 
E2 FGF2 E2D2 ^C2D4z2  | f4 f4 f2e2 f4 g2 | \
w:   |  Meh tap ta  *  gü  | 
a2 g2f2 e2d2 e2c6  | 
w:  zel_ *  o *  lur   | 
d4 d2f2 e2d2 c2=B2 c2 | dc d2ed e2f2 e2f4z2  | \
w:  Bo ğa *  zi *  çi   |  â *  *  le *  *  mi    | 
f4 f4 f2e2 f4 g2 | 
w:  Meh tap ta  *  gü  | 
a2 g2f2 e2d2 e2c6  | g4 g2b2 a2g2 f2e2 d2 | \
w:  zel_ *  o *  lur   |  Bo ğa *  zi *  çi   | 
f2 e2d2 ^c2d8z2  | 
w:  â *  le *  mi    | 
d4 d2f2 e2d2 c2B2 A2 | A3GA2 B2A2 G2F4z2  | \
w:  Saz  he *  ye *  ti   |  bir *  lik *  te   | 
c4 c2d2 c2=B2 _7/8A2G2 F2 | 
w:  din le *  sin *  ler   | 
_7/8A2 G2F2 E2F2 G2=A4z2  | G4 A4 A4 B3A G2 | \
w:  nâ *  le *  mi    |  Saz  he ye ti   | 
G4G2 B2A2 G2F3ED2  | 
w:  bir lik *  te   | 
G4 G2B2 A2G2 F3E D2 | F2 E2D2 ^C2D8z2  | \
w:  din le *  sin *  ler   |  nâ *  le *  mi    | 
f4 f4 f2e2 f4 g2 | a2 g2f2 e2d2 e2c6  | 
w:  Meh tap ta  *  gü  |  zel_ *  o *  lur   | 
d4 d2f2 e2d2 c2=B2 c2 | dc d2ed e2f2 e2f4z2  | \
w:  Bo ğa *  zi *  çi   |  â *  *  le *  *  mi    | 
f4 f4 f2e2 f4 g2 | 
w:  Meh tap ta  *  gü  | 
a2 g2f2 e2d2 e2c6  | g4 g2b2 a2g2 f2e2 d2 | \
w:  zel_ *  o *  lur   |  Bo ğa *  zi *  çi   | 
f2 e2d2 ^c2d8z2  | 
w:  â *  le *  mi    | 
d4 d2f2 e2d2 c2B2 A2 | A3GA2 B2A2 G2F4z2  | \
w:  Saz  he *  ye *  ti   |  bir *  lik *  te   | 
c4 c2d2 c2=B2 _7/8A2G2 F2 | 
w:  din le *  sin *  ler   | 
_7/8A2 G2F2 E2F2 G2=A4z2  | G4 A4 A4 B3A G2 | \
w:  nâ *  le *  mi    |  Saz  he ye ti   | 
G4G2 B2A2 G2F3ED2  | 
w:  bir lik *  te   | 
G4 G2B2 A2G2 F3E D2 | F2 E2D2 ^C2D8z2  | |


